arcticons-light/symbolic/apps/steam_icon_1292940-symbolic.svg

<?xml version="1.0" encoding="UTF-8" standalone="no"?>
<svg
   viewBox="0 0 48 48"
   version="1.1"
   id="svg3"
   sodipodi:docname="steam_icon_1292940.svg"
   xmlns:inkscape="http://www.inkscape.org/namespaces/inkscape"
   xmlns:sodipodi="http://sodipodi.sourceforge.net/DTD/sodipodi-0.dtd"
   xmlns="http://www.w3.org/2000/svg"
   xmlns:svg="http://www.w3.org/2000/svg">
  <sodipodi:namedview
     id="namedview3"
     pagecolor="#ffffff"
     bordercolor="#666666"
     borderopacity="1.0"
     inkscape:showpageshadow="2"
     inkscape:pageopacity="0.0"
     inkscape:pagecheckerboard="0"
     inkscape:deskcolor="#d1d1d1" />
  <defs
     id="defs1">
    <style
       id="style1">.a{fill:none;stroke:#000;stroke-width:2px;stroke-linecap:round;stroke-linejoin:round;}</style>
  </defs>
  <path
     style="color:#000000;fill:#000000;stroke-linecap:round;stroke-linejoin:round;-inkscape-stroke:none"
     d="M 23.390625,3.6347656 6.5292969,13.363281 a 1.0001,1.0001 0 0 0 0,1.732422 L 23.5,24.896484 a 1.0001,1.0001 0 0 0 1,0 l 16.859375,-9.730468 a 1.0001,1.0001 0 0 0 0,-1.732422 L 24.390625,3.6347656 a 1.0001,1.0001 0 0 0 -1,0 z m 0.5,2.0195313 14.96875,8.6445311 L 24,22.875 9.0292969,14.230469 Z"
     id="polygon1" />
  <path
     style="color:#000000;fill:#000000;stroke-linecap:round;stroke-linejoin:round;-inkscape-stroke:none"
     d="m 6.5292969,13.363281 a 1.0001,1.0001 0 0 0 -0.5,0.867188 v 19.46875 a 1.0001,1.0001 0 0 0 0.5,0.867187 L 23.5,44.365234 A 1.0001,1.0001 0 0 0 25,43.5 V 24.029297 A 1.0001,1.0001 0 0 0 24.5,23.164062 L 7.5292969,13.363281 a 1.0001,1.0001 0 0 0 -1,0 z m 1.5,2.59961 L 23,24.607422 V 41.767578 L 8.0292969,33.123047 Z"
     id="polygon2" />
  <path
     style="color:#000000;fill:#000000;stroke-linecap:round;stroke-linejoin:round;-inkscape-stroke:none"
     d="M 40.359375,13.433594 23.5,23.164062 A 1.0001,1.0001 0 0 0 23,24.029297 V 43.5 a 1.0001,1.0001 0 0 0 1.5,0.865234 l 16.859375,-9.728515 a 1.0001,1.0001 0 0 0 0.5,-0.867188 v -19.46875 a 1.0001,1.0001 0 0 0 -1.5,-0.867187 z m -0.5,2.597656 V 33.193359 L 25,41.769531 V 24.607422 Z"
     id="polygon3" />
</svg>

<?xml version="1.0" encoding="UTF-8"?>
<svg id="svg12" version="1.1" viewBox="0 0 48 48" xmlns="http://www.w3.org/2000/svg">
 <defs id="defs4">
  <style id="style2">.a{fill:none;stroke:#000;stroke-width:2px;stroke-linecap:round;stroke-linejoin:round;}</style>
 </defs>
 <path id="polygon6" d="m23.391 3.6348-16.861 9.7285a1.0001 1.0001 0 0 0 0 1.7324l16.971 9.8008a1.0001 1.0001 0 0 0 1 0l16.859-9.7305a1.0001 1.0001 0 0 0 0-1.7324l-16.969-9.7988a1.0001 1.0001 0 0 0-1 0zm0.5 2.0195 14.969 8.6445-14.859 8.5762-14.971-8.6445z" color="#000000" stroke-linecap="round" stroke-linejoin="round" style="-inkscape-stroke:none"/>
 <path id="polygon8" d="m6.5293 13.363a1.0001 1.0001 0 0 0-0.5 0.86719v19.469a1.0001 1.0001 0 0 0 0.5 0.86719l16.971 9.7988a1.0001 1.0001 0 0 0 1.5-0.86523v-19.471a1.0001 1.0001 0 0 0-0.5-0.86524l-16.971-9.8008a1.0001 1.0001 0 0 0-1 0zm1.5 2.5996 14.971 8.6445v17.16l-14.971-8.6445z" color="#000000" stroke-linecap="round" stroke-linejoin="round" style="-inkscape-stroke:none"/>
 <path id="polygon10" d="m40.359 13.434-16.859 9.7305a1.0001 1.0001 0 0 0-0.5 0.86524v19.471a1.0001 1.0001 0 0 0 1.5 0.86523l16.859-9.7285a1.0001 1.0001 0 0 0 0.5-0.86719v-19.469a1.0001 1.0001 0 0 0-1.5-0.86719zm-0.5 2.5977v17.162l-14.859 8.5762v-17.162z" color="#000000" stroke-linecap="round" stroke-linejoin="round" style="-inkscape-stroke:none"/>
</svg>
